X:1
T:De Patre dum quaerit
T:Daniel Friderici
T:Source : Bicinia sacra---Rostock---J.Richelius---1642. Editor : André Vierendeels (28/06/17).
T:Notes : Original clefs : C1, C1 Editorial accidentals above the staff
T:De Patre dum quaerit
T:©
T:©
C:Daniel Friderici
Z:©
%%score [ 1 2 ]
L:1/8
Q:1/4=120
M:2/2
K:F
V:1 treble nm="Soprano" snm="S"
V:2 treble nm="Alto" snm="A"
V:1
 B4 A2 F2 | G2 A2 B2 F2 | G4 D4 | d4 c2 A2 | B2 c2 d2 c2 | B4 A4 | z2 B2 A2 G2 | ^F4 G2 d2 | %8
w: De Pa- tre|dum quae- rit Mes-|si- as,|de Pa- tre|dum quae- rit Mes-|si- as,|o- ra te-|ne- bant, o-|
 c2 B2 A4 |[M:2/4] G4 ::[M:2/2] z2 B2 G4 | ^F2 D2 AGFE | D4 D2 d2 | dcBA G4 | G2 B2 B2 G2 | %15
w: ra te- ne-|bant:|In foe-|lix, in foe- * * *|* lix, in|foe- * * * *|lix quis- quis sic-|
 F2 G2 A2 B2 | A2 D2 z2 B2 | A2 G2 ^F2 G2 | A2 B2 A2 D2 | z2 B2 A2 G2 | ^F2 G2 A2 B2 | A3 G ^F3 G | %22
w: ut A- pel- la|ta- cet, quis-|quis sic- ut A-|pel- la ta- cet,|quis- quis sic-|ut A- pel- la|ta- * * *|
 A4 !fermata!G4 :| %23
w: * cet.|
V:2
 z8 | z8 | z8 | B4 A2 F2 | G2 A2 B2 F2 | G4 D4 | d4 c2 B2 | A4 G2 B2 | A2 G4 ^F2 |[M:2/4] G4 :: %10
w: |||De Pa- tre|dum quae- rit Mes-|si- as,|o- ra te-|ne- bant, o-|ra te- ne-|bant:|
[M:2/2] z2 G2 B4 | A4 z2 D2 | AGFE D4 | D2 d2 dcBA | G4 G2 B2 | A2 G2 ^F2 G2 | A2 B2 A2 D2 | %17
w: in foe-|lix, in|foe- * * * *|lix, in foe- * * *|* lix quiq-|quis sic- ut A-|pel- la ta- cet,|
 z2 B2 A2 G2 | ^F2 G2 A2 B2 | A2 D2 z2 B2 | A2 G2 ^F2 G2 | A2 B2 A2 G2- | G^F/E/ F2 !fermata!G4 :| %23
w: quis- quis sic-|ut A- pel- la|ta- cet, quis-|quis sic- ut A-|pel- la ta- *|* * * * cet.|

